modules/hawcons-filled/icons/icon-31-file-xls.svg

<?xml version="1.0" encoding="UTF-8" standalone="no"?>
<svg width="32px" height="32px" viewBox="0 0 32 32" version="1.1" xmlns="http://www.w3.org/2000/svg" xmlns:xlink="http://www.w3.org/1999/xlink" xmlns:sketch="http://www.bohemiancoding.com/sketch/ns">
    <!-- Generator: Sketch 3.0.3 (7891) - http://www.bohemiancoding.com/sketch -->
    <title>icon 31 file xls</title>
    <desc>Created with Sketch.</desc>
    <defs></defs>
    <g id="Page-1" stroke="none" stroke-width="1" fill="none" fill-rule="evenodd" sketch:type="MSPage">
        <g id="icon-31-file-xls" sketch:type="MSArtboardGroup" fill="#929292">
            <path d="M8.00684834,10 C6.34621185,10 5,11.3422643 5,12.9987856 L5,20.0012144 C5,21.6573979 6.33599155,23 8.00684834,23 L24.9931517,23 C26.6537881,23 28,21.6577357 28,20.0012144 L28,12.9987856 C28,11.3426021 26.6640085,10 24.9931517,10 L8.00684834,10 L8.00684834,10 Z M10,16.5 L8,13 L9,13 L10.5,15.625 L12,13 L13,13 L11,16.5 L13,20 L12,20 L10.5,17.375 L9,20 L8,20 L10,16.5 L10,16.5 Z M19,19 L19,20 L14,20 L14,13 L15,13 L15,19 L19,19 L19,19 Z M22.0048815,13 C20.897616,13 20,13.8877296 20,15 C20,16.1045695 20.8877296,17 22,17 L22.9906311,17 C23.5480902,17 24,17.4438648 24,18 C24,18.5522847 23.5573397,19 23.0010434,19 L21.9989566,19 C21.4472481,19 21,18.543716 21,18.0044713 L21,17.9931641 L20,17.9931641 L20,17.998921 C20,19.1040864 20.8938998,20 22.0048815,20 L22.9951185,20 C24.102384,20 25,19.1122704 25,18 C25,16.8954305 24.1122704,16 23,16 L22.0093689,16 C21.4519098,16 21,15.5561352 21,15 C21,14.4477153 21.4426603,14 21.9989566,14 L23.0010434,14 C23.5527519,14 24,14.453186 24,15 L25,15 C25,13.8954305 24.1061002,13 22.9951185,13 L22.0048815,13 L22.0048815,13 Z" id="file-xls" sketch:type="MSShapeGroup"></path>
        </g>
    </g>
</svg>

<svg width="32" height="32" viewBox="0 0 32 32" xmlns="http://www.w3.org/2000/svg"><path d="M8.007 10A3.003 3.003 0 0 0 5 12.999V20A2.996 2.996 0 0 0 8.007 23h16.986A3.003 3.003 0 0 0 28 20.001V13A2.996 2.996 0 0 0 24.993 10H8.007zM10 16.5L8 13h1l1.5 2.625L12 13h1l-2 3.5 2 3.5h-1l-1.5-2.625L9 20H8l2-3.5zm9 2.5v1h-5v-7h1v6h4zm3.005-6A1.998 1.998 0 0 0 20 15c0 1.105.888 2 2 2h.99c.558 0 1.01.444 1.01 1 0 .552-.443 1-.999 1h-1.002c-.552 0-.999-.456-.999-.996v-.01h-1v.005A2 2 0 0 0 22.005 20h.99A1.998 1.998 0 0 0 25 18c0-1.105-.888-2-2-2h-.99c-.558 0-1.01-.444-1.01-1 0-.552.443-1 .999-1h1.002c.552 0 .999.453.999 1h1a2 2 0 0 0-2.005-2h-.99z" fill="#929292" fill-rule="evenodd"/></svg>
